src/assets/time-logo.svg

<svg xmlns="http://www.w3.org/2000/svg" width="512" height="512" style="shape-rendering:geometricPrecision;text-rendering:geometricPrecision;image-rendering:optimizeQuality;fill-rule:evenodd;clip-rule:evenodd"><path fill="#f7a900" d="M233.5 15.5c103.155-4.52 180.988 37.147 233.5 125 30.57 58.798 36.903 120.131 19 184-26.997 82.331-81.831 136.497-164.5 162.5-86.453 21.551-163.119 3.218-230-55C23.632 364.053 1.132 283.219 24 189.5 50.003 106.831 104.169 51.997 186.5 25c15.557-4.411 31.223-7.578 47-9.5Zm17 32c89.704 2.29 154.537 43.29 194.5 123 27.336 66.286 23.336 130.619-12 193-41.786 63.509-100.953 96.842-177.5 100-69.372-2.267-125.205-30.601-167.5-85-42.868-62.608-51.201-129.608-25-201C91.587 112.251 140.421 70.75 209.5 53c13.696-2.752 27.362-4.586 41-5.5Z" style="opacity:.982"/><path fill="#f7a900" d="M272.5 95.5c-.999 47.83-1.332 95.83-1 144h112c13.222 1.399 18.389 8.733 15.5 22-1.833 4.5-5 7.667-9.5 9.5-46.667.667-93.333.667-140 0-4.5-1.833-7.667-5-9.5-9.5a7392.554 7392.554 0 0 1 0-172c5.468-10.413 13.635-13.246 24.5-8.5 4.637 3.777 7.304 8.61 8 14.5Z" style="opacity:.997"/><path fill="#ffbe00" d="M272.5 95.5v143c37.17-.332 74.17.002 111 1h-112c-.332-48.17.001-96.17 1-144Z" style="opacity:.016"/></svg>

<svg xmlns="http://www.w3.org/2000/svg" version="1.1" width="512px" height="512px" style="shape-rendering:geometricPrecision; text-rendering:geometricPrecision; image-rendering:optimizeQuality; fill-rule:evenodd; clip-rule:evenodd" xmlns:xlink="http://www.w3.org/1999/xlink">
<g><path style="opacity:0.982" fill="#f7a900" d="M 233.5,15.5 C 336.655,10.9799 414.488,52.6466 467,140.5C 497.57,199.298 503.903,260.631 486,324.5C 459.003,406.831 404.169,460.997 321.5,487C 235.047,508.551 158.381,490.218 91.5,432C 23.6322,364.053 1.13225,283.219 24,189.5C 50.0028,106.831 104.169,51.9973 186.5,25C 202.057,20.5889 217.723,17.4223 233.5,15.5 Z M 250.5,47.5 C 340.204,49.7905 405.037,90.7905 445,170.5C 472.336,236.786 468.336,301.119 433,363.5C 391.214,427.009 332.047,460.342 255.5,463.5C 186.128,461.233 130.295,432.899 88,378.5C 45.1323,315.892 36.799,248.892 63,177.5C 91.5873,112.251 140.421,70.7509 209.5,53C 223.196,50.2477 236.862,48.4144 250.5,47.5 Z"/></g>
<g><path style="opacity:0.997" fill="#f7a900" d="M 272.5,95.5 C 271.501,143.33 271.168,191.33 271.5,239.5C 308.833,239.5 346.167,239.5 383.5,239.5C 396.722,240.899 401.889,248.233 399,261.5C 397.167,266 394,269.167 389.5,271C 342.833,271.667 296.167,271.667 249.5,271C 245,269.167 241.833,266 240,261.5C 239.333,204.167 239.333,146.833 240,89.5C 245.468,79.087 253.635,76.2537 264.5,81C 269.137,84.777 271.804,89.6103 272.5,95.5 Z"/></g>
<g><path style="opacity:0.016" fill="#ffbe00" d="M 272.5,95.5 C 272.5,143.167 272.5,190.833 272.5,238.5C 309.67,238.168 346.67,238.502 383.5,239.5C 346.167,239.5 308.833,239.5 271.5,239.5C 271.168,191.33 271.501,143.33 272.5,95.5 Z"/></g>
</svg>
